X: 3433
T: Bethan's Dance
R: jig
M: 6/8
K: Aminor
d|:eAB cAB|GED AGE|DEG ABc|B2 G AB/c/d|
eAB cAB|GED AGE|DEG ABc|B2 G A2d:|
eAB ceg|ABc deg|age d2g|edB G B/c/d|
eAB ceg|ABc deg|age d2g|edB A~AA|
eAB ceg|ABc deg|age d2g|edB G B/c/d|
eAB cAB|GED AGE|DEG ABc|B2 G A2d||

